X: 7
T: The Flax In Bloom
R: reel
M: 4/4
L: 1/8
K: Dmaj
|:D2ED FAAf|gefd edBd|A2FA dfaf|g2fd edBd|
D2ED FAAf|gefd edBd|A2FB ABdf|1 afeg fdd2:|2 afeg fdde||
|:f2df edce|d2cd BAFA|DFAd FAdf|(3gfe fd edBd|
f2df edce|d2cd BAFA|DEFG ABdf|1 afeg fdde:|2 afeg fdd2||


Tune 748	Setting 13840

